X:1
T:Io disleale?
T:Io disleale?
T:Enrico Radesca di Foggia
T:Source : Canzonette, madrigale & arie---Libro I---Milano---Heredes S.Tini & F.Lomazzi---1606. Editor : André Vierendeels (19/03/14).
C:Enrico Radesca di Foggia
%%score [ 1 2 ] 3
L:1/8
Q:1/4=96
M:4/4
K:F
V:1 treble nm="Soprano" snm="S"
V:2 bass nm="Bass" snm="B"
V:3 bass nm="MusicXML Part"
V:1
 d6 GA | A2 A2 z4 | z2 d4 GA | A2 f2 e4 | d8 | A2 A2 A2 AB | c4 c2 d2 | B2 A2 G4- | G2 A2 A4 | %9
w: Io dis- le-|a- le?|Io dis- le-|a- le'ah- cru-|da,|voi ne- ga- te la|fe- de, per|non mi dar|_ mer- ce-|
 G4 z2 G2 | A2 B2 c4- | c2 B2 A4 | G8 :: d2 d2 d4- | d4 d2 c2 | d4 A4 | z2 A2 c3 c | c2 B2 A4 | %18
w: de, per|non mi dar|_ mer- ce-|de:|se non bast'|_ il lan-|gui- re,|pro- va- tem'|al mo- ri-|
 G4 z2 d2 | d2 d2 B2 c2 | d4 d2 d2 | _e2 B2 c2 c2 | d4 d4 | c2 c2 c4 | c2 B2 G4 | A4 B2 c2 | %26
w: re, e|se cio ri- cu-|sa- te, per-|che la fe ne-|ga- te,|che pro- var|non vo- le-|te? O pro-|
 d2 cB A4 | G4 d2 d2 | d2 cB A4 | G8 :| %30
w: va- te'o cre- de-|te, O pro-|va- te'o cre- de-|te.|
V:2
 G,6 _E,C, | D,2 D,2 z4 | G,6 _E,C, | D,2 D,2 A,4 | D,8 | D,2 D,2 D,2 D,G, | F,4 F,2 F,2 | %7
w: Io dis- le-|a- le?|Io dis- le-|a- le'ah cru-|da,|voi ne- ga- te la|fe- de, per|
 G,2 F,2 _E,4 | C,4 D,4 | G,,4 z2 G,2 | ^F,2 G,2 _E,4 | C,4 D,4 | G,,8 :: G,2 G,2 G,4- | %14
w: non mi dar|mer- ce-|de, per|non mi dar|mar- ce-|de:|se non bast'|
 G,4 F,2 _E,2 | D,4 D,2 D,2 | F,3 F, F,2 _E,2 | D,8 | G,,4 z2 G,2 | B,2 B,2 G,2 A,2 | B,4 B,2 B,2 | %21
w: _ il lan-|gui- re, pro-|va- tem' al mo-|ri-|re, e|se cio ri- cu-|sa- te, per-|
 _E,2 G,2 F,2 F,2 | B,,4 B,,4 | F,2 F,2 F,4 | F,2 G,2 _E,4 | D,4 G,,2 A,,2 | B,,2 C,C, D,4 | %27
w: che la fe ne-|ga- te,|che pro- var|non vo- le-|te? O pro-|va- te'o cre- de-|
 G,,4 B,,2 B,,2 | B,,2 C,C, D,4 | G,,8 :| %30
w: te, O pro-|va- te'o cre- de-|te.|
V:3
 G,6 C,2 | D,8 | G,6 C,2 | D,4 A,4 | D,8 | D,8 | F,8 | G,2 F,2 _E,4 | C,4 D,4 | G,,4 G,4 | %10
 ^F,2 G,2 _E,4 | C,4 D,4 | G,,8 :: G,8 | G,4 F,2 _E,2 | D,8 | F,6 _E,2 | D,8 | G,,4 G,4 | %19
 B,4 G,2 A,2 | B,6 B,2 | _E,2 G,2 F,4 | B,,8 | F,8 | F,2 G,2 _E,4 | D,4 G,,2 A,,2 | B,,2 C,2 D,4 | %27
 G,,4 B,,4 | B,,2 C,2 D,4 | G,,8 :| %30

